Numix-GalliumOS/22/emblems/cs-xlet-update.svg

<?xml version="1.0" encoding="UTF-8" standalone="no"?>
<svg
   xmlns:dc="http://purl.org/dc/elements/1.1/"
   xmlns:cc="http://creativecommons.org/ns#"
   xmlns:rdf="http://www.w3.org/1999/02/22-rdf-syntax-ns#"
   xmlns:svg="http://www.w3.org/2000/svg"
   xmlns="http://www.w3.org/2000/svg"
   xmlns:sodipodi="http://sodipodi.sourceforge.net/DTD/sodipodi-0.dtd"
   xmlns:inkscape="http://www.inkscape.org/namespaces/inkscape"
   width="22"
   height="22"
   viewBox="0 0 22 22"
   id="svg2"
   version="1.1"
   inkscape:version="0.48.5 r10040"
   sodipodi:docname="cs-xlet-update.svg">
  <metadata
     id="metadata12">
    <rdf:RDF>
      <cc:Work
         rdf:about="">
        <dc:format>image/svg+xml</dc:format>
        <dc:type
           rdf:resource="http://purl.org/dc/dcmitype/StillImage" />
      </cc:Work>
    </rdf:RDF>
  </metadata>
  <defs
     id="defs10" />
  <sodipodi:namedview
     pagecolor="#ffffff"
     bordercolor="#666666"
     borderopacity="1"
     objecttolerance="10"
     gridtolerance="10"
     guidetolerance="10"
     inkscape:pageopacity="0"
     inkscape:pageshadow="2"
     inkscape:window-width="640"
     inkscape:window-height="480"
     id="namedview8"
     showgrid="false"
     inkscape:zoom="10.727273"
     inkscape:cx="11"
     inkscape:cy="11"
     inkscape:window-x="0"
     inkscape:window-y="0"
     inkscape:window-maximized="0"
     inkscape:current-layer="svg2" />
  <path
     inkscape:connector-curvature="0"
     style="fill:#ffffff;stroke:#777777;stroke-width:0.36287335"
     d="m 19.984258,11.000214 c 0,4.960923 -4.023454,8.984349 -8.984411,8.984349 -4.9609568,0 -8.9844103,-4.023426 -8.9844103,-8.984349 0,-4.9609233 4.0234535,-8.9843493 8.9844103,-8.9843493 4.960957,0 8.984411,4.023426 8.984411,8.9843493 z"
     id="path2991" />
  <path
     style="fill:#dc322f;fill-opacity:1"
     d="M 11.054688 4.582031 C 7.867188 4.582031 5.269531 7.28125 5.074219 10.675781 L 3.207031 10.675781 L 6.210938 15.542969 L 9.214844 10.675781 L 7.078125 10.675781 C 7.261719 8.472656 8.96875 6.75 11.054688 6.75 C 11.824219 6.75 12.554688 6.988281 13.164062 7.394531 L 14.191406 5.550781 C 13.28125 4.941406 12.203125 4.582031 11.054688 4.582031 Z M 15.789062 6.457031 L 12.785156 11.324219 L 14.921875 11.324219 C 14.738281 13.527344 13.03125 15.25 10.945312 15.25 C 10.175781 15.25 9.445312 15.011719 8.835938 14.605469 L 7.808594 16.449219 C 8.71875 17.058594 9.796875 17.417969 10.945312 17.417969 C 14.132812 17.417969 16.730469 14.71875 16.925781 11.324219 L 18.792969 11.324219 Z "
     id="path6" />
</svg>

<svg xmlns="http://www.w3.org/2000/svg" viewBox="0 0 22 22">
 <path d="m 19.984 11 c 0 4.961 -4.02 8.984 -8.984 8.984 -4.961 0 -8.984 -4.02 -8.984 -8.984 0 -4.961 4.02 -8.984 8.984 -8.984 4.961 0 8.984 4.02 8.984 8.984 z" style="fill:#fff;stroke:#777;stroke-width:0.363"/>
 <path d="m 11.05 4.582 c -3.188 0 -5.785 2.699 -5.98 6.094 l -1.867 0 l 3 4.867 l 3 -4.867 l -2.137 0 c 0.184 -2.203 1.891 -3.926 3.977 -3.926 c 0.77 0 1.5 0.238 2.109 0.645 l 1.027 -1.844 c -0.91 -0.609 -1.988 -0.969 -3.137 -0.969 m 4.734 1.875 l -3 4.867 l 2.137 0 c -0.184 2.203 -1.891 3.926 -3.977 3.926 c -0.77 0 -1.5 -0.238 -2.109 -0.645 l -1.027 1.844 c 0.91 0.609 1.988 0.969 3.137 0.969 c 3.188 0 5.785 -2.699 5.98 -6.094 l 1.867 0 Z" style="fill:#dc322f;fill-opacity:1"/>
</svg>
